X:1
T:Title
L:1/8
M:6/8
I:linebreak $
K:G
V:1 treble nm="Voice"
V:1
"G" DGG AAG | A(3BAG G2 A | DGG AAG |"C" cAG =FDC |"G" DGG AAG | A(3BAG GBd |"D" eef gfd |1 %7
 cAF"G" G2 F :|2 cAF"G" G2 A |:"G" BAB"C" cBc |"D" ded"G" G2 A | BAB GBd |"C" cAG"D" FGA | %13
"G" BAB"C" cBc |"D" dcd efg | a2 f gfd | cAF"G" G2 A :| %17
